X:1
T:Title
%%score { ( 1 3 ) | ( 2 4 5 ) }
L:1/8
M:3/4
K:D
V:1 treble nm="Grand Piano"
V:3 treble 
V:2 bass 
V:4 bass 
V:5 bass 
V:1
 z6[Q:1/4=100] | A>B z A de | f>e d[df] [df][df] | [Be]4 [Ac]2 | [Ad]4 z2 | A>B z A de | %6
 f>e d[Ad] [Ad][Ad] | [Ac]4 [^Gd]2 | [Ac]4 z2 | [ce]2 [Bd]2 [ce]2 | [df]3 [ce] d2 | %11
 dc ed [Ac][GB] | [GB]2 [FA][DF] [FA][Ad] | [Ad]>[Ac] [Ac]A [Ac][Ae] | [Ae]>[Ad] [Ad]A [Ad][df] | %15
 [df]>[de] [de]2 [dg]2 | [df]4 e-[Ae] |[M:2/4] [Ad]4 |] %18
V:2
 z2 z2 A2 | z6 | A4 z2 | [G,,G,]4 [A,,E,]2 | [D,F,]4 A2 | z6 | A4 z2 | E,4 E,2 | [A,,E,]4 z2 | %9
 A,2 A,2 A,2 | [D,A,]3 [D,G,] [D,F,]2 | [G,,G,]4 [G,,D,][B,,D,] | D,2 D,D, D,[F,A,] | %13
 [E,G,]>[E,G,] [E,G,][E,G,] [E,G,][G,A,] | [F,A,]>[F,A,] [F,A,][F,A,] [F,A,][A,=C] | %15
 [G,B,]>[G,B,] [G,B,]2 [E,B,]2 | A,4 [A,,G,]2 |[M:2/4] [D,F,]4 |] %18
V:3
 x6 | F2 F4 | x6 | x6 | x6 | F2 F4 | x6 | x6 | x6 | x6 | x6 | B4 z2 | x6 | x6 | x6 | x6 | %16
 z2 z2 .c2 |[M:2/4] x4 |] %18
V:4
 x6 | D,6- | D,4 z2 | x6 | x6 | D,6- | D,4 z2 | x6 | x6 | x6 | x6 | x6 | x6 | x6 | x6 | x6 | x6 | %17
[M:2/4] x4 |] %18
V:5
 x6 | x6 | z z/ E,/ F,[D,A,] [D,A,][D,A,] | x6 | x6 | x6 | z z/ E,/ F,[D,F,] [D,F,][D,F,] | x6 | %8
 x6 | x6 | x6 | x6 | x6 | x6 | x6 | x6 | x6 |[M:2/4] x4 |] %18

